X:1
T:Br\'id Harper's
R:Jig
D:Niall & Cillian Vallely: Callan Bridge
S:Cunla (Juin 2005)
K:Em
M:6/8
Q:140
% partie A
|: GEF G2A | Bee dBd | edB AGA | BGE AFD
 | GEF G2A | Bee dBd | edB AGA | BGE E3 :|
% partie B
|: g2g fed | e2e dBA |G2G ABc | BGE EGE
 | DB,D EGc | BdB g2d | edB AGA | BGE E3 :|
